icons/death_alt2.svg

<svg width="48" height="48" viewBox="0 0 48 48" fill="none" xmlns="http://www.w3.org/2000/svg">
<path fill-rule="evenodd" clip-rule="evenodd" d="M17.3824 6.00112L13.0693 17.1843L17.6431 41.9845L30.316 41.9982L34.9304 17.2023L30.6356 6.01197L17.3824 6.00112ZM32.0106 4.0131L16.0106 4L11 16.9916L15.9779 43.9828L31.9779 44L37 17.0129L32.0106 4.0131Z" fill="black"/>
<path fill-rule="evenodd" clip-rule="evenodd" d="M23 17.9967V26H25V17.9967H28L28 15.9967H25V13H23V15.9967H20V17.9967H23Z" fill="black"/>
</svg>

<svg
  xmlns="http://www.w3.org/2000/svg"
  width="24"
  height="24"
  viewBox="0 0 24 24"
  fill="none"
  stroke="currentColor"
  stroke-width="2"
  stroke-linecap="round"
  stroke-linejoin="round"
>
  <path
    fill-rule="evenodd"
    d="M17.382 6.001 13.07 17.184l4.574 24.8 12.673.014 4.614-24.796-4.294-11.19zm14.629-1.988L16.01 4 11 16.992l4.978 26.99 16 .018L37 17.013z"
    clip-rule="evenodd"
  />
  <path
    fill-rule="evenodd"
    d="M23 17.997V26h2v-8.003h3v-2h-3V13h-2v2.997h-3v2z"
    clip-rule="evenodd"
  />
</svg>
